X:226
T: Die Linde im Himmelreich
N: A0582
O: Europa, Mitteleuropa, Deutschland
N: H. v. Laufenbergs geistl. Lieder Hs.
R: Romanze, Ballade, Lied, religioeses Lied
M: 3/4
L: 1/4
K: C
C | C2C | E2E | G2G | G2
G | A2c | B2G | AGA | G2
G | A2c | B2A | G2F | E2
E | G2G | E2D | C3 | C2

